images/16758399.svg

<?xml version="1.0" encoding="UTF-8"?>
<svg xmlns="http://www.w3.org/2000/svg" xmlns:xlink="http://www.w3.org/1999/xlink" width="300pt" height="300pt" viewBox="0 0 300 300" version="1.1">
<defs>
<g>
<symbol overflow="visible" id="glyph0-0">
<path style="stroke:none;" d="M 0.453125 1.59375 L 0.453125 -6.34375 L 4.953125 -6.34375 L 4.953125 1.59375 Z M 0.953125 1.09375 L 4.453125 1.09375 L 4.453125 -5.84375 L 0.953125 -5.84375 Z M 0.953125 1.09375 "/>
</symbol>
<symbol overflow="visible" id="glyph0-1">
<path style="stroke:none;" d="M 3.546875 -5.953125 C 2.898438 -5.953125 2.382812 -5.710938 2 -5.234375 C 1.625 -4.753906 1.4375 -4.101562 1.4375 -3.28125 C 1.4375 -2.445312 1.625 -1.789062 2 -1.3125 C 2.382812 -0.832031 2.898438 -0.59375 3.546875 -0.59375 C 4.191406 -0.59375 4.703125 -0.832031 5.078125 -1.3125 C 5.453125 -1.789062 5.640625 -2.445312 5.640625 -3.28125 C 5.640625 -4.101562 5.453125 -4.753906 5.078125 -5.234375 C 4.703125 -5.710938 4.191406 -5.953125 3.546875 -5.953125 Z M 3.546875 -6.6875 C 4.460938 -6.6875 5.195312 -6.375 5.75 -5.75 C 6.300781 -5.132812 6.578125 -4.3125 6.578125 -3.28125 C 6.578125 -2.238281 6.300781 -1.410156 5.75 -0.796875 C 5.195312 -0.179688 4.460938 0.125 3.546875 0.125 C 2.617188 0.125 1.878906 -0.179688 1.328125 -0.796875 C 0.773438 -1.410156 0.5 -2.238281 0.5 -3.28125 C 0.5 -4.3125 0.773438 -5.132812 1.328125 -5.75 C 1.878906 -6.375 2.617188 -6.6875 3.546875 -6.6875 Z M 3.546875 -6.6875 "/>
</symbol>
<symbol overflow="visible" id="glyph0-2">
<path style="stroke:none;" d="M 0.890625 -6.5625 L 2.078125 -6.5625 L 4.984375 -1.078125 L 4.984375 -6.5625 L 5.84375 -6.5625 L 5.84375 0 L 4.65625 0 L 1.75 -5.484375 L 1.75 0 L 0.890625 0 Z M 0.890625 -6.5625 "/>
</symbol>
<symbol overflow="visible" id="glyph0-3">
<path style="stroke:none;" d="M 0.890625 -6.5625 L 1.765625 -6.5625 L 1.765625 -3.875 L 5 -3.875 L 5 -6.5625 L 5.890625 -6.5625 L 5.890625 0 L 5 0 L 5 -3.125 L 1.765625 -3.125 L 1.765625 0 L 0.890625 0 Z M 0.890625 -6.5625 "/>
</symbol>
</g>
</defs>
<g id="surface36005">
<rect x="0" y="0" width="300" height="300" style="fill:rgb(100%,100%,100%);fill-opacity:1;stroke:none;"/>
<path style="fill:none;stroke-width:1.2;stroke-linecap:butt;stroke-linejoin:miter;stroke:rgb(0%,0%,0%);stroke-opacity:1;stroke-miterlimit:10;" d="M 79.492188 206.539062 L 72.117188 190.132812 "/>
<path style="fill:none;stroke-width:1.2;stroke-linecap:butt;stroke-linejoin:miter;stroke:rgb(0%,0%,0%);stroke-opacity:1;stroke-miterlimit:10;" d="M 72.332031 188.027344 L 63.382812 187.117188 "/>
<path style="fill:none;stroke-width:1.2;stroke-linecap:butt;stroke-linejoin:miter;stroke:rgb(100%,0%,0%);stroke-opacity:1;stroke-miterlimit:10;" d="M 63.382812 187.117188 L 54.4375 186.210938 "/>
<path style="fill:none;stroke-width:1.2;stroke-linecap:butt;stroke-linejoin:miter;stroke:rgb(0%,0%,0%);stroke-opacity:1;stroke-miterlimit:10;" d="M 71.90625 192.238281 L 62.957031 191.328125 "/>
<path style="fill:none;stroke-width:1.2;stroke-linecap:butt;stroke-linejoin:miter;stroke:rgb(100%,0%,0%);stroke-opacity:1;stroke-miterlimit:10;" d="M 62.957031 191.328125 L 54.007812 190.421875 "/>
<path style="fill:none;stroke-width:1.2;stroke-linecap:butt;stroke-linejoin:miter;stroke:rgb(0%,0%,0%);stroke-opacity:1;stroke-miterlimit:10;" d="M 72.117188 190.132812 L 77.378906 182.839844 "/>
<path style="fill:none;stroke-width:1.2;stroke-linecap:butt;stroke-linejoin:miter;stroke:rgb(100%,0%,0%);stroke-opacity:1;stroke-miterlimit:10;" d="M 77.378906 182.839844 L 82.640625 175.542969 "/>
<path style=" stroke:none;fill-rule:nonzero;fill:rgb(100%,100%,100%);fill-opacity:1;" d="M 46.222656 182.816406 L 54.222656 182.816406 L 54.222656 193.816406 L 46.222656 193.816406 Z M 46.222656 182.816406 "/>
<g style="fill:rgb(100%,0%,0%);fill-opacity:1;">
  <use xlink:href="#glyph0-1" x="46.222656" y="191.479492"/>
</g>
<path style="fill:none;stroke-width:1.2;stroke-linecap:butt;stroke-linejoin:miter;stroke:rgb(100%,0%,0%);stroke-opacity:1;stroke-miterlimit:10;" d="M 82.640625 175.542969 L 78.953125 167.339844 "/>
<path style="fill:none;stroke-width:1.2;stroke-linecap:butt;stroke-linejoin:miter;stroke:rgb(0%,0%,0%);stroke-opacity:1;stroke-miterlimit:10;" d="M 78.953125 167.339844 L 75.265625 159.136719 "/>
<path style=" stroke:none;fill-rule:nonzero;fill:rgb(100%,100%,100%);fill-opacity:1;" d="M 78.640625 170.042969 L 86.640625 170.042969 L 86.640625 181.042969 L 78.640625 181.042969 Z M 78.640625 170.042969 "/>
<g style="fill:rgb(100%,0%,0%);fill-opacity:1;">
  <use xlink:href="#glyph0-1" x="78.640625" y="178.706055"/>
</g>
<path style=" stroke:none;fill-rule:nonzero;fill:rgb(0%,0%,0%);fill-opacity:1;" d="M 85.789062 144.546875 L 72.691406 157.277344 L 77.84375 160.992188 Z M 85.789062 144.546875 "/>
<path style="fill:none;stroke-width:1.2;stroke-linecap:butt;stroke-linejoin:miter;stroke:rgb(0%,0%,0%);stroke-opacity:1;stroke-miterlimit:10;" d="M 85.789062 144.546875 L 78.414062 128.140625 "/>
<path style="fill:none;stroke-width:1.2;stroke-linecap:butt;stroke-linejoin:miter;stroke:rgb(100%,0%,0%);stroke-opacity:1;stroke-miterlimit:10;" d="M 103.6875 146.363281 L 94.738281 145.457031 "/>
<path style="fill:none;stroke-width:1.2;stroke-linecap:butt;stroke-linejoin:miter;stroke:rgb(0%,0%,0%);stroke-opacity:1;stroke-miterlimit:10;" d="M 94.738281 145.457031 L 85.789062 144.546875 "/>
<path style="fill:none;stroke-width:1.2;stroke-linecap:butt;stroke-linejoin:miter;stroke:rgb(0%,0%,0%);stroke-opacity:1;stroke-miterlimit:10;" d="M 78.414062 128.140625 L 88.9375 113.550781 "/>
<path style=" stroke:none;fill-rule:nonzero;fill:rgb(0%,0%,0%);fill-opacity:1;" d="M 78.414062 128.140625 L 60.839844 123.164062 L 60.199219 129.480469 Z M 78.414062 128.140625 "/>
<path style="fill:none;stroke-width:1.2;stroke-linecap:butt;stroke-linejoin:miter;stroke:rgb(0%,0%,0%);stroke-opacity:1;stroke-miterlimit:10;" d="M 88.9375 113.550781 L 106.835938 115.367188 "/>
<path style="fill:none;stroke-width:1.2;stroke-linecap:butt;stroke-linejoin:miter;stroke:rgb(0%,0%,0%);stroke-opacity:1;stroke-miterlimit:10;" d="M 90.300781 117.941406 L 104.617188 119.398438 "/>
<path style="fill:none;stroke-width:1.2;stroke-linecap:butt;stroke-linejoin:miter;stroke:rgb(0%,0%,0%);stroke-opacity:1;stroke-miterlimit:10;" d="M 106.835938 115.367188 L 114.207031 131.773438 "/>
<path style="fill:none;stroke-width:1.2;stroke-linecap:butt;stroke-linejoin:miter;stroke:rgb(0%,0%,0%);stroke-opacity:1;stroke-miterlimit:10;" d="M 114.207031 131.773438 L 108.945312 139.070312 "/>
<path style="fill:none;stroke-width:1.2;stroke-linecap:butt;stroke-linejoin:miter;stroke:rgb(100%,0%,0%);stroke-opacity:1;stroke-miterlimit:10;" d="M 108.945312 139.070312 L 103.6875 146.363281 "/>
<path style=" stroke:none;fill-rule:nonzero;fill:rgb(0%,0%,0%);fill-opacity:1;" d="M 114.207031 131.773438 L 131.78125 136.75 L 132.425781 130.433594 Z M 114.207031 131.773438 "/>
<path style=" stroke:none;fill-rule:nonzero;fill:rgb(100%,100%,100%);fill-opacity:1;" d="M 99.6875 140.863281 L 107.6875 140.863281 L 107.6875 151.863281 L 99.6875 151.863281 Z M 99.6875 140.863281 "/>
<g style="fill:rgb(100%,0%,0%);fill-opacity:1;">
  <use xlink:href="#glyph0-1" x="99.6875" y="149.526367"/>
</g>
<path style="fill:none;stroke-width:1.2;stroke-linecap:butt;stroke-linejoin:miter;stroke:rgb(0%,0%,0%);stroke-opacity:1;stroke-miterlimit:10;" d="M 132.105469 133.59375 L 139.476562 150 "/>
<path style="fill:none;stroke-width:1.2;stroke-linecap:butt;stroke-linejoin:miter;stroke:rgb(0%,0%,0%);stroke-opacity:1;stroke-miterlimit:10;" d="M 139.476562 150 L 148.425781 150.910156 "/>
<path style="fill:none;stroke-width:1.2;stroke-linecap:butt;stroke-linejoin:miter;stroke:rgb(0%,0%,100%);stroke-opacity:1;stroke-miterlimit:10;" d="M 148.425781 150.910156 L 157.375 151.816406 "/>
<path style="fill:none;stroke-width:1.2;stroke-linecap:butt;stroke-linejoin:miter;stroke:rgb(0%,0%,0%);stroke-opacity:1;stroke-miterlimit:10;" d="M 140.839844 154.394531 L 147.996094 155.121094 "/>
<path style="fill:none;stroke-width:1.2;stroke-linecap:butt;stroke-linejoin:miter;stroke:rgb(0%,0%,100%);stroke-opacity:1;stroke-miterlimit:10;" d="M 147.996094 155.121094 L 155.15625 155.847656 "/>
<path style="fill:none;stroke-width:1.2;stroke-linecap:butt;stroke-linejoin:miter;stroke:rgb(0%,0%,100%);stroke-opacity:1;stroke-miterlimit:10;" d="M 157.375 151.816406 L 162.636719 144.523438 "/>
<path style="fill:none;stroke-width:1.2;stroke-linecap:butt;stroke-linejoin:miter;stroke:rgb(100%,0%,0%);stroke-opacity:1;stroke-miterlimit:10;" d="M 162.636719 144.523438 L 167.894531 137.226562 "/>
<path style=" stroke:none;fill-rule:nonzero;fill:rgb(100%,100%,100%);fill-opacity:1;" d="M 154.375 146.316406 L 161.375 146.316406 L 161.375 157.316406 L 154.375 157.316406 Z M 154.375 146.316406 "/>
<g style="fill:rgb(0%,0%,100%);fill-opacity:1;">
  <use xlink:href="#glyph0-2" x="154.375" y="154.979492"/>
</g>
<path style=" stroke:none;fill-rule:nonzero;fill:rgb(0%,0%,0%);fill-opacity:1;" d="M 185.792969 139.046875 L 168.21875 134.070312 L 167.574219 140.386719 Z M 185.792969 139.046875 "/>
<path style=" stroke:none;fill-rule:nonzero;fill:rgb(100%,100%,100%);fill-opacity:1;" d="M 163.894531 131.726562 L 171.894531 131.726562 L 171.894531 142.726562 L 163.894531 142.726562 Z M 163.894531 131.726562 "/>
<g style="fill:rgb(100%,0%,0%);fill-opacity:1;">
  <use xlink:href="#glyph0-1" x="163.894531" y="140.389648"/>
</g>
<path style="fill:none;stroke-width:1.2;stroke-linecap:butt;stroke-linejoin:miter;stroke:rgb(0%,0%,0%);stroke-opacity:1;stroke-miterlimit:10;" d="M 185.792969 139.046875 L 193.164062 155.453125 "/>
<path style="fill:none;stroke-width:1.2;stroke-linecap:butt;stroke-linejoin:miter;stroke:rgb(0%,0%,0%);stroke-opacity:1;stroke-miterlimit:10;" d="M 196.3125 124.457031 L 185.792969 139.046875 "/>
<path style="fill:none;stroke-width:1.2;stroke-linecap:butt;stroke-linejoin:miter;stroke:rgb(0%,0%,0%);stroke-opacity:1;stroke-miterlimit:10;" d="M 193.164062 155.453125 L 211.0625 157.269531 "/>
<path style="fill:none;stroke-width:1.2;stroke-linecap:butt;stroke-linejoin:miter;stroke:rgb(0%,0%,0%);stroke-opacity:1;stroke-miterlimit:10;" d="M 195.382812 151.425781 L 209.699219 152.878906 "/>
<path style="fill:none;stroke-width:1.2;stroke-linecap:butt;stroke-linejoin:miter;stroke:rgb(0%,0%,0%);stroke-opacity:1;stroke-miterlimit:10;" d="M 211.0625 157.269531 L 221.585938 142.683594 "/>
<path style="fill:none;stroke-width:1.2;stroke-linecap:butt;stroke-linejoin:miter;stroke:rgb(0%,0%,0%);stroke-opacity:1;stroke-miterlimit:10;" d="M 221.585938 142.683594 L 217.898438 134.476562 "/>
<path style="fill:none;stroke-width:1.2;stroke-linecap:butt;stroke-linejoin:miter;stroke:rgb(100%,0%,0%);stroke-opacity:1;stroke-miterlimit:10;" d="M 217.898438 134.476562 L 214.210938 126.273438 "/>
<path style="fill:none;stroke-width:1;stroke-linecap:butt;stroke-linejoin:miter;stroke:rgb(0%,0%,0%);stroke-opacity:1;stroke-miterlimit:10;" d="M 221.585938 142.683594 L 221.585938 142.683594 M 224.472656 143.5 L 224.574219 142.460938 M 227.355469 144.316406 L 227.566406 142.242188 M 230.242188 145.132812 L 230.558594 142.019531 M 233.128906 145.949219 L 233.550781 141.800781 M 236.015625 146.769531 L 236.542969 141.582031 M 238.902344 147.585938 L 239.535156 141.359375 M 239.160156 147.65625 L 239.800781 141.339844 "/>
<path style="fill:none;stroke-width:1.2;stroke-linecap:butt;stroke-linejoin:miter;stroke:rgb(100%,0%,0%);stroke-opacity:1;stroke-miterlimit:10;" d="M 214.210938 126.273438 L 205.261719 125.367188 "/>
<path style="fill:none;stroke-width:1.2;stroke-linecap:butt;stroke-linejoin:miter;stroke:rgb(0%,0%,0%);stroke-opacity:1;stroke-miterlimit:10;" d="M 205.261719 125.367188 L 196.3125 124.457031 "/>
<path style=" stroke:none;fill-rule:nonzero;fill:rgb(100%,100%,100%);fill-opacity:1;" d="M 210.210938 120.773438 L 218.210938 120.773438 L 218.210938 131.773438 L 210.210938 131.773438 Z M 210.210938 120.773438 "/>
<g style="fill:rgb(100%,0%,0%);fill-opacity:1;">
  <use xlink:href="#glyph0-1" x="210.210938" y="129.436523"/>
</g>
<path style=" stroke:none;fill-rule:nonzero;fill:rgb(0%,0%,0%);fill-opacity:1;" d="M 196.3125 124.457031 L 191.835938 106.746094 L 186.046875 109.351562 Z M 196.3125 124.457031 "/>
<path style="fill:none;stroke-width:1.2;stroke-linecap:butt;stroke-linejoin:miter;stroke:rgb(0%,0%,0%);stroke-opacity:1;stroke-miterlimit:10;" d="M 188.941406 108.050781 L 194.203125 100.753906 "/>
<path style="fill:none;stroke-width:1.2;stroke-linecap:butt;stroke-linejoin:miter;stroke:rgb(100%,0%,0%);stroke-opacity:1;stroke-miterlimit:10;" d="M 194.203125 100.753906 L 199.464844 93.460938 "/>
<path style=" stroke:none;fill-rule:nonzero;fill:rgb(100%,100%,100%);fill-opacity:1;" d="M 192.464844 87.960938 L 207.464844 87.960938 L 207.464844 98.960938 L 192.464844 98.960938 Z M 192.464844 87.960938 "/>
<g style="fill:rgb(100%,0%,0%);fill-opacity:1;">
  <use xlink:href="#glyph0-1" x="192.464844" y="96.624023"/>
  <use xlink:href="#glyph0-3" x="199.806641" y="96.624023"/>
</g>
<path style="fill:none;stroke-width:1.2;stroke-linecap:butt;stroke-linejoin:miter;stroke:rgb(0%,0%,0%);stroke-opacity:1;stroke-miterlimit:10;" d="M 239.480469 144.5 L 246.855469 160.90625 "/>
<path style="fill:none;stroke-width:1.2;stroke-linecap:butt;stroke-linejoin:miter;stroke:rgb(0%,0%,0%);stroke-opacity:1;stroke-miterlimit:10;" d="M 246.640625 163.011719 L 264.535156 164.832031 "/>
<path style="fill:none;stroke-width:1.2;stroke-linecap:butt;stroke-linejoin:miter;stroke:rgb(0%,0%,0%);stroke-opacity:1;stroke-miterlimit:10;" d="M 247.066406 158.800781 L 264.964844 160.621094 "/>
<path style="fill:none;stroke-width:1.2;stroke-linecap:butt;stroke-linejoin:miter;stroke:rgb(100%,0%,0%);stroke-opacity:1;stroke-miterlimit:10;" d="M 60.519531 126.320312 L 56.832031 118.117188 "/>
<path style="fill:none;stroke-width:1.2;stroke-linecap:butt;stroke-linejoin:miter;stroke:rgb(0%,0%,0%);stroke-opacity:1;stroke-miterlimit:10;" d="M 56.832031 118.117188 L 53.144531 109.914062 "/>
<path style=" stroke:none;fill-rule:nonzero;fill:rgb(100%,100%,100%);fill-opacity:1;" d="M 56.519531 120.820312 L 64.519531 120.820312 L 64.519531 131.820312 L 56.519531 131.820312 Z M 56.519531 120.820312 "/>
<g style="fill:rgb(100%,0%,0%);fill-opacity:1;">
  <use xlink:href="#glyph0-1" x="56.519531" y="129.483398"/>
</g>
<path style="fill:none;stroke-width:1.2;stroke-linecap:butt;stroke-linejoin:miter;stroke:rgb(0%,0%,0%);stroke-opacity:1;stroke-miterlimit:10;" d="M 54.863281 111.152344 L 60.125 103.855469 "/>
<path style="fill:none;stroke-width:1.2;stroke-linecap:butt;stroke-linejoin:miter;stroke:rgb(100%,0%,0%);stroke-opacity:1;stroke-miterlimit:10;" d="M 60.125 103.855469 L 65.382812 96.5625 "/>
<path style="fill:none;stroke-width:1.2;stroke-linecap:butt;stroke-linejoin:miter;stroke:rgb(0%,0%,0%);stroke-opacity:1;stroke-miterlimit:10;" d="M 51.429688 108.675781 L 56.691406 101.382812 "/>
<path style="fill:none;stroke-width:1.2;stroke-linecap:butt;stroke-linejoin:miter;stroke:rgb(100%,0%,0%);stroke-opacity:1;stroke-miterlimit:10;" d="M 56.691406 101.382812 L 61.953125 94.085938 "/>
<path style="fill:none;stroke-width:1.2;stroke-linecap:butt;stroke-linejoin:miter;stroke:rgb(0%,0%,0%);stroke-opacity:1;stroke-miterlimit:10;" d="M 53.144531 109.914062 L 35.25 108.097656 "/>
<path style=" stroke:none;fill-rule:nonzero;fill:rgb(100%,100%,100%);fill-opacity:1;" d="M 59.667969 89.824219 L 67.667969 89.824219 L 67.667969 100.824219 L 59.667969 100.824219 Z M 59.667969 89.824219 "/>
<g style="fill:rgb(100%,0%,0%);fill-opacity:1;">
  <use xlink:href="#glyph0-1" x="59.667969" y="98.487305"/>
</g>
</g>
</svg>

<svg xmlns="http://www.w3.org/2000/svg" xmlns:xlink="http://www.w3.org/1999/xlink" width="300pt" height="300pt" viewBox="0 0 300 300"><defs><symbol overflow="visible"><path d="M.453 1.594v-7.938h4.5v7.938zm.5-.5h3.5v-6.938h-3.5zm0 0"/></symbol><symbol overflow="visible" id="a"><path d="M3.547-5.953c-.65 0-1.164.242-1.547.72-.375.48-.563 1.13-.563 1.952 0 .835.188 1.49.563 1.967.383.48.898.72 1.547.72.644 0 1.156-.24 1.53-.72.376-.476.564-1.132.564-1.968 0-.822-.187-1.474-.562-1.954-.375-.477-.887-.72-1.53-.72zm0-.734c.914 0 1.648.312 2.203.937.55.617.828 1.438.828 2.47 0 1.042-.277 1.87-.828 2.483-.555.617-1.29.922-2.203.922-.93 0-1.668-.305-2.22-.922C.774-1.41.5-2.237.5-3.28c0-1.033.273-1.853.828-2.47.55-.625 1.29-.938 2.22-.938zm0 0"/></symbol><symbol overflow="visible" id="b"><path d="M.89-6.563H2.08l2.906 5.485v-5.484h.86V0H4.656L1.75-5.484V0H.89zm0 0"/></symbol><symbol overflow="visible" id="c"><path d="M.89-6.563h.876v2.688H5v-2.688h.89V0H5v-3.125H1.766V0H.89zm0 0"/></symbol></defs><g><path fill="#fff" d="M0 0h300v300H0z"/><path d="M79.492 206.54l-7.375-16.407M72.332 188.027l-8.95-.91" stroke-width="1.2" stroke="#000" stroke-miterlimit="10" fill="none"/><path d="M63.383 187.117l-8.946-.906" stroke-width="1.2" stroke="#f00" stroke-miterlimit="10" fill="none"/><path d="M71.906 192.238l-8.95-.91" stroke-width="1.2" stroke="#000" stroke-miterlimit="10" fill="none"/><path d="M62.957 191.328l-8.95-.906" stroke-width="1.2" stroke="#f00" stroke-miterlimit="10" fill="none"/><path d="M72.117 190.133l5.262-7.293" stroke-width="1.2" stroke="#000" stroke-miterlimit="10" fill="none"/><path d="M77.38 182.84l5.26-7.297" stroke-width="1.2" stroke="#f00" stroke-miterlimit="10" fill="none"/><path d="M46.223 182.816h8v11h-8zm0 0" fill="#fff"/><use xlink:href="#a" x="46.223" y="191.479" fill="#f00"/><path d="M82.64 175.543l-3.687-8.203" stroke-width="1.2" stroke="#f00" stroke-miterlimit="10" fill="none"/><path d="M78.953 167.34l-3.687-8.203" stroke-width="1.2" stroke="#000" stroke-miterlimit="10" fill="none"/><path d="M78.64 170.043h8v11h-8zm0 0" fill="#fff"/><use xlink:href="#a" x="78.641" y="178.706" fill="#f00"/><path d="M85.79 144.547l-13.1 12.73 5.154 3.715zm0 0"/><path d="M85.79 144.547l-7.376-16.406" stroke-width="1.2" stroke="#000" stroke-miterlimit="10" fill="none"/><path d="M103.688 146.363l-8.95-.906" stroke-width="1.2" stroke="#f00" stroke-miterlimit="10" fill="none"/><path d="M94.738 145.457l-8.95-.91M78.414 128.14l10.523-14.59" stroke-width="1.2" stroke="#000" stroke-miterlimit="10" fill="none"/><path d="M78.414 128.14l-17.574-4.976-.64 6.316zm0 0"/><path d="M88.938 113.55l17.898 1.817M90.3 117.94l14.317 1.458M106.836 115.367l7.37 16.406M114.207 131.773l-5.262 7.297" stroke-width="1.2" stroke="#000" stroke-miterlimit="10" fill="none"/><path d="M108.945 139.07l-5.257 7.293" stroke-width="1.2" stroke="#f00" stroke-miterlimit="10" fill="none"/><path d="M114.207 131.773l17.574 4.977.646-6.316zm0 0"/><path d="M99.688 140.863h8v11h-8zm0 0" fill="#fff"/><use xlink:href="#a" x="99.688" y="149.526" fill="#f00"/><path d="M132.105 133.594L139.477 150M139.477 150l8.95.91" stroke-width="1.2" stroke="#000" stroke-miterlimit="10" fill="none"/><path d="M148.426 150.91l8.95.906" stroke-width="1.2" stroke="#00f" stroke-miterlimit="10" fill="none"/><path d="M140.84 154.395l7.156.726" stroke-width="1.2" stroke="#000" stroke-miterlimit="10" fill="none"/><path d="M147.996 155.12l7.16.728M157.375 151.816l5.262-7.293" stroke-width="1.2" stroke="#00f" stroke-miterlimit="10" fill="none"/><path d="M162.637 144.523l5.258-7.296" stroke-width="1.2" stroke="#f00" stroke-miterlimit="10" fill="none"/><path d="M154.375 146.316h7v11h-7zm0 0" fill="#fff"/><use xlink:href="#b" x="154.375" y="154.979" fill="#00f"/><path d="M185.793 139.047l-17.574-4.977-.646 6.317zm0 0"/><path d="M163.895 131.727h8v11h-8zm0 0" fill="#fff"/><use xlink:href="#a" x="163.895" y="140.39" fill="#f00"/><path d="M185.793 139.047l7.37 16.406M196.313 124.457l-10.52 14.59M193.164 155.453l17.9 1.817M195.383 151.426l14.316 1.453M211.063 157.27l10.523-14.586M221.586 142.684l-3.688-8.207" stroke-width="1.2" stroke="#000" stroke-miterlimit="10" fill="none"/><path d="M217.898 134.477l-3.687-8.204" stroke-width="1.2" stroke="#f00" stroke-miterlimit="10" fill="none"/><path d="M221.586 142.684m2.887.816l.1-1.04m2.782 1.856l.21-2.074m2.677 2.89l.317-3.112m2.57 3.93l.42-4.15m2.466 4.97l.527-5.188m2.36 6.004l.632-6.227m-.375 6.296l.64-6.316" stroke="#000" stroke-miterlimit="10" fill="none"/><path d="M214.21 126.273l-8.948-.906" stroke-width="1.2" stroke="#f00" stroke-miterlimit="10" fill="none"/><path d="M205.262 125.367l-8.95-.91" stroke-width="1.2" stroke="#000" stroke-miterlimit="10" fill="none"/><path d="M210.21 120.773h8v11h-8zm0 0" fill="#fff"/><use xlink:href="#a" x="210.211" y="129.437" fill="#f00"/><path d="M196.313 124.457l-4.477-17.71-5.79 2.605zm0 0"/><path d="M188.94 108.05l5.263-7.296" stroke-width="1.2" stroke="#000" stroke-miterlimit="10" fill="none"/><path d="M194.203 100.754l5.262-7.293" stroke-width="1.2" stroke="#f00" stroke-miterlimit="10" fill="none"/><path d="M192.465 87.96h15v11h-15zm0 0" fill="#fff"/><g fill="#f00"><use xlink:href="#a" x="192.465" y="96.624"/><use xlink:href="#c" x="199.807" y="96.624"/></g><path d="M239.48 144.5l7.375 16.406M246.64 163.012l17.895 1.82M247.066 158.8l17.9 1.82" stroke-width="1.2" stroke="#000" stroke-miterlimit="10" fill="none"/><path d="M60.52 126.32l-3.688-8.203" stroke-width="1.2" stroke="#f00" stroke-miterlimit="10" fill="none"/><path d="M56.832 118.117l-3.687-8.203" stroke-width="1.2" stroke="#000" stroke-miterlimit="10" fill="none"/><path d="M56.52 120.82h8v11h-8zm0 0" fill="#fff"/><use xlink:href="#a" x="56.52" y="129.483" fill="#f00"/><path d="M54.863 111.152l5.262-7.297" stroke-width="1.2" stroke="#000" stroke-miterlimit="10" fill="none"/><path d="M60.125 103.855l5.258-7.293" stroke-width="1.2" stroke="#f00" stroke-miterlimit="10" fill="none"/><path d="M51.43 108.676l5.26-7.293" stroke-width="1.2" stroke="#000" stroke-miterlimit="10" fill="none"/><path d="M56.69 101.383l5.263-7.297" stroke-width="1.2" stroke="#f00" stroke-miterlimit="10" fill="none"/><path d="M53.145 109.914l-17.895-1.816" stroke-width="1.2" stroke="#000" stroke-miterlimit="10" fill="none"/><path d="M59.668 89.824h8v11h-8zm0 0" fill="#fff"/><use xlink:href="#a" x="59.668" y="98.487" fill="#f00"/></g></svg>
